Numix/16/status/indicator-keyboard-Sl-1.svg

<?xml version="1.0" encoding="UTF-8" standalone="no"?>
<svg
   xmlns:dc="http://purl.org/dc/elements/1.1/"
   xmlns:cc="http://creativecommons.org/ns#"
   xmlns:rdf="http://www.w3.org/1999/02/22-rdf-syntax-ns#"
   xmlns:svg="http://www.w3.org/2000/svg"
   xmlns="http://www.w3.org/2000/svg"
   xmlns:sodipodi="http://sodipodi.sourceforge.net/DTD/sodipodi-0.dtd"
   xmlns:inkscape="http://www.inkscape.org/namespaces/inkscape"
   viewBox="0 0 16 16"
   id="svg2"
   version="1.1"
   inkscape:version="0.91 r13725"
   sodipodi:docname="indicator-keyboard-Sl-1.svg">
  <metadata
     id="metadata14">
    <rdf:RDF>
      <cc:Work
         rdf:about="">
        <dc:format>image/svg+xml</dc:format>
        <dc:type
           rdf:resource="http://purl.org/dc/dcmitype/StillImage" />
      </cc:Work>
    </rdf:RDF>
  </metadata>
  <defs
     id="defs12" />
  <sodipodi:namedview
     pagecolor="#ffffff"
     bordercolor="#666666"
     borderopacity="1"
     objecttolerance="10"
     gridtolerance="10"
     guidetolerance="10"
     inkscape:pageopacity="0"
     inkscape:pageshadow="2"
     inkscape:window-width="640"
     inkscape:window-height="480"
     id="namedview10"
     showgrid="false"
     inkscape:zoom="14.75"
     inkscape:cx="8"
     inkscape:cy="8"
     inkscape:window-x="65"
     inkscape:window-y="24"
     inkscape:window-maximized="0"
     inkscape:current-layer="svg2" />
  <path
     style="fill:#ececec;fill-opacity:1"
     d="M 1.5996094 0 C 0.71320937 2.9605947e-16 0 0.71320937 0 1.5996094 L 0 14.400391 C 2.9605947e-16 15.286791 0.71320937 16 1.5996094 16 L 14.400391 16 C 15.286791 16 16 15.286791 16 14.400391 L 16 1.5996094 C 16 0.71320937 15.286791 0 14.400391 0 L 1.5996094 0 z M 9.3417969 4.1113281 L 9.3417969 9.9628906 C 9.3417969 10.106891 9.3549063 10.2225 9.3789062 10.3125 C 9.4089062 10.3965 9.4499063 10.465531 9.5039062 10.519531 C 9.5579063 10.567531 9.6269375 10.604906 9.7109375 10.628906 C 9.8009375 10.652906 9.9053906 10.673406 10.025391 10.691406 L 9.9453125 11.177734 C 9.7473125 11.171734 9.5738281 11.143703 9.4238281 11.095703 C 9.2798281 11.053703 9.1566875 10.988438 9.0546875 10.898438 C 8.9586875 10.802437 8.8840781 10.681109 8.8300781 10.537109 C 8.7820781 10.387109 8.7578125 10.202469 8.7578125 9.9804688 L 8.7578125 4.2207031 L 9.3417969 4.1113281 z M 5.8183594 4.7246094 C 5.9863594 4.7246094 6.1505 4.7357656 6.3125 4.7597656 C 6.4745 4.7837656 6.6256719 4.817375 6.7636719 4.859375 C 6.9076719 4.895375 7.0363906 4.936375 7.1503906 4.984375 C 7.2703906 5.032375 7.3692656 5.0846719 7.4472656 5.1386719 L 7.2304688 5.6503906 C 7.0564687 5.5303906 6.8437969 5.4352813 6.5917969 5.3632812 C 6.3457969 5.2912813 6.0790156 5.2558594 5.7910156 5.2558594 C 5.5930156 5.2558594 5.4101875 5.2763594 5.2421875 5.3183594 C 5.0801875 5.3543594 4.9383594 5.4178125 4.8183594 5.5078125 C 4.6983594 5.5918125 4.60325 5.6980781 4.53125 5.8300781 C 4.46525 5.9620781 4.4316406 6.1225938 4.4316406 6.3085938 C 4.4316406 6.5005937 4.4670625 6.6629219 4.5390625 6.7949219 C 4.6110625 6.9269219 4.7118906 7.0407187 4.8378906 7.1367188 C 4.9698906 7.2327187 5.122875 7.3184844 5.296875 7.3964844 C 5.470875 7.4744844 5.6592812 7.556625 5.8632812 7.640625 C 6.1092813 7.742625 6.3406406 7.8433125 6.5566406 7.9453125 C 6.7786406 8.0473125 6.9708125 8.1686406 7.1328125 8.3066406 C 7.2948125 8.4446406 7.4235312 8.6125469 7.5195312 8.8105469 C 7.6155313 9.0085469 7.6621094 9.2510625 7.6621094 9.5390625 C 7.6621094 10.103063 7.4643594 10.526594 7.0683594 10.808594 C 6.6783594 11.090594 6.1485625 11.230469 5.4765625 11.230469 C 5.2365625 11.230469 5.0163594 11.215547 4.8183594 11.185547 C 4.6203594 11.155547 4.4431094 11.120125 4.2871094 11.078125 C 4.1311094 11.030125 4.0005781 10.981594 3.8925781 10.933594 C 3.7845781 10.885594 3.700625 10.844594 3.640625 10.808594 L 3.8378906 10.277344 C 3.8978906 10.313344 3.9780781 10.354344 4.0800781 10.402344 C 4.1820781 10.450344 4.3034063 10.498875 4.4414062 10.546875 C 4.5794063 10.588875 4.7342031 10.624297 4.9082031 10.654297 C 5.0822031 10.684297 5.274375 10.699219 5.484375 10.699219 C 5.970375 10.699219 6.3491406 10.613453 6.6191406 10.439453 C 6.8891406 10.259453 7.0234375 9.970219 7.0234375 9.5742188 C 7.0234375 9.3462187 6.9786719 9.1578125 6.8886719 9.0078125 C 6.8046719 8.8518125 6.690875 8.7230938 6.546875 8.6210938 C 6.402875 8.5130937 6.2387344 8.4235625 6.0527344 8.3515625 C 5.8667344 8.2735625 5.6707969 8.1914219 5.4667969 8.1074219 C 5.2087969 8.0054219 4.9774375 7.9009687 4.7734375 7.7929688 C 4.5694375 7.6849688 4.3959531 7.5655937 4.2519531 7.4335938 C 4.1079531 7.2955937 3.9979219 7.1388438 3.9199219 6.9648438 C 3.8479219 6.7908437 3.8105469 6.5875156 3.8105469 6.3535156 C 3.8105469 5.8195156 3.9877969 5.4146719 4.3417969 5.1386719 C 4.6957969 4.8626719 5.1883594 4.7246094 5.8183594 4.7246094 z M 12.091797 8.8417969 L 12.359375 8.8417969 L 12.359375 12.896484 L 11.980469 12.896484 L 11.980469 9.421875 C 11.937569 9.468675 11.880747 9.5157063 11.810547 9.5664062 C 11.744247 9.6171063 11.667831 9.66805 11.582031 9.71875 C 11.496231 9.76555 11.4061 9.812575 11.3125 9.859375 C 11.2189 9.902275 11.12485 9.9375437 11.03125 9.9648438 L 10.919922 9.671875 C 11.153922 9.5899751 11.363575 9.4880813 11.546875 9.3632812 C 11.730175 9.2345813 11.912397 9.0601969 12.091797 8.8417969 z "
     id="path4" />
</svg>

<svg xmlns="http://www.w3.org/2000/svg" viewBox="0 0 16 16">
 <path d="m 1.6 0 c -0.886 0 -1.6 0.713 -1.6 1.6 l 0 12.801 c 0 0.886 0.713 1.6 1.6 1.6 l 12.801 0 c 0.886 0 1.6 -0.713 1.6 -1.6 l 0 -12.801 c 0 -0.886 -0.713 -1.6 -1.6 -1.6 l -12.801 0 z m 7.742 4.111 l 0 5.852 c 0 0.144 0.013 0.26 0.037 0.35 c 0.03 0.084 0.071 0.153 0.125 0.207 c 0.054 0.048 0.123 0.085 0.207 0.109 c 0.09 0.024 0.194 0.044 0.314 0.063 l -0.08 0.486 c -0.198 -0.006 -0.371 -0.034 -0.521 -0.082 c -0.144 -0.042 -0.267 -0.107 -0.369 -0.197 c -0.096 -0.096 -0.171 -0.217 -0.225 -0.361 c -0.048 -0.15 -0.072 -0.335 -0.072 -0.557 l 0 -5.76 l 0.584 -0.109 z m -3.523 0.613 c 0.168 0 0.332 0.011 0.494 0.035 c 0.162 0.024 0.313 0.058 0.451 0.1 c 0.144 0.036 0.273 0.077 0.387 0.125 c 0.12 0.048 0.219 0.1 0.297 0.154 l -0.217 0.512 c -0.174 -0.12 -0.387 -0.215 -0.639 -0.287 c -0.246 -0.072 -0.513 -0.107 -0.801 -0.107 c -0.198 0 -0.381 0.02 -0.549 0.063 c -0.162 0.036 -0.304 0.099 -0.424 0.189 c -0.12 0.084 -0.215 0.19 -0.287 0.322 c -0.066 0.132 -0.1 0.293 -0.1 0.479 c 0 0.192 0.035 0.354 0.107 0.486 c 0.072 0.132 0.173 0.246 0.299 0.342 c 0.132 0.096 0.285 0.182 0.459 0.26 c 0.174 0.078 0.362 0.16 0.566 0.244 c 0.246 0.102 0.477 0.203 0.693 0.305 c 0.222 0.102 0.414 0.223 0.576 0.361 c 0.162 0.138 0.291 0.306 0.387 0.504 c 0.096 0.198 0.143 0.441 0.143 0.729 c 0 0.564 -0.198 0.988 -0.594 1.27 c -0.39 0.282 -0.92 0.422 -1.592 0.422 c -0.24 0 -0.46 -0.015 -0.658 -0.045 c -0.198 -0.03 -0.375 -0.065 -0.531 -0.107 c -0.156 -0.048 -0.287 -0.097 -0.395 -0.145 c -0.108 -0.048 -0.192 -0.089 -0.252 -0.125 l 0.197 -0.531 c 0.06 0.036 0.14 0.077 0.242 0.125 c 0.102 0.048 0.223 0.097 0.361 0.145 c 0.138 0.042 0.293 0.077 0.467 0.107 c 0.174 0.03 0.366 0.045 0.576 0.045 c 0.486 0 0.865 -0.086 1.135 -0.26 c 0.27 -0.18 0.404 -0.469 0.404 -0.865 c 0 -0.228 -0.045 -0.416 -0.135 -0.566 c -0.084 -0.156 -0.198 -0.285 -0.342 -0.387 c -0.144 -0.108 -0.308 -0.198 -0.494 -0.27 c -0.186 -0.078 -0.382 -0.16 -0.586 -0.244 c -0.258 -0.102 -0.489 -0.206 -0.693 -0.314 c -0.204 -0.108 -0.377 -0.227 -0.521 -0.359 c -0.144 -0.138 -0.254 -0.295 -0.332 -0.469 c -0.072 -0.174 -0.109 -0.377 -0.109 -0.611 c 0 -0.534 0.177 -0.939 0.531 -1.215 c 0.354 -0.276 0.847 -0.414 1.477 -0.414 z m 6.273 4.117 l 0.268 0 l 0 4.055 l -0.379 0 l 0 -3.475 c -0.043 0.047 -0.1 0.094 -0.17 0.145 c -0.066 0.051 -0.143 0.102 -0.229 0.152 c -0.086 0.047 -0.176 0.094 -0.27 0.141 c -0.094 0.043 -0.188 0.078 -0.281 0.105 l -0.111 -0.293 c 0.234 -0.082 0.444 -0.184 0.627 -0.309 c 0.183 -0.129 0.366 -0.303 0.545 -0.521 z" style="fill:#ececec;fill-opacity:1"/>
</svg>
